X:140
T:Pigeon on the Gate, The
R:reel
H:See also #141, #532, #653, #654, #655, #656
Z:id:hn-reel-140
M:C|
K:Edor
BE~E2 BEdE|BEEB BAFE|~D2(3FED AD(3FED|DEFA BAFA|
BE~E2 BEdE|BE~E2 BAFE|D2FA dfec|dBAF EFGA:|
|:Be~e2 efed|(3Bcd ef gfed|Addc dedB|AddB ADFA |
Beed efed|(3Bcd ef ~g2fg|afge fdec|dBAF EFGA:|
